X:20
T:Pretty Governor. WR1776.20, The
B:Wm.Randall CDs 1776
Z:vmp.Steve Mansfield 2015
M:9/8
L:1/8
W:Foot it all & turn your Part.s foot it again &
W:turn your Part.s lead thro' the bottom
W:cast up thro' the top cast off
Q:3/8=110
K:F
f3 afd gec | fed cBA G3 | f3 agf gec | dfe dc=B c3 :|
|: c=Bc ABc cd_e | d=ef gaf edc | f3 agf gec | dBA GFE F3 :|

